libs/icons/src/svg/products-filled.svg

<svg width="16" height="16" viewBox="0 0 16 16" fill="none" xmlns="http://www.w3.org/2000/svg">
<path fill-rule="evenodd" clip-rule="evenodd" d="M8.24286 6.76909L13.6853 3.74549C13.8225 3.66929 13.8225 3.47203 13.6853 3.39583L8.32404 0.417325C8.22494 0.362218 8.11343 0.333298 8.00004 0.333298C7.88665 0.333298 7.77514 0.362218 7.67604 0.417325L2.31474 3.39583C2.17758 3.47203 2.17758 3.66929 2.31474 3.74549L7.75722 6.76909C7.90823 6.85299 8.09185 6.85299 8.24286 6.76909ZM7.33337 8.17636C7.33337 8.10373 7.294 8.0368 7.2305 8.00153L1.6305 4.89042C1.4972 4.81636 1.33337 4.91275 1.33337 5.06525V11.6667C1.33337 11.7855 1.36514 11.9022 1.42538 12.0047C1.48563 12.1071 1.57217 12.1916 1.67604 12.2493L7.03625 15.227C7.16956 15.301 7.33337 15.2046 7.33337 15.0521V8.17636ZM8.66671 8.17636C8.66671 8.10372 8.70609 8.03679 8.76959 8.00152L14.3696 4.89103C14.5029 4.81698 14.6667 4.91338 14.6667 5.06587V11.6667C14.6667 11.7855 14.6349 11.9022 14.5747 12.0046C14.5144 12.1071 14.4279 12.1916 14.324 12.2493L8.96383 15.2269C8.83052 15.301 8.66671 15.2046 8.66671 15.0521V8.17636Z" fill="#202327"/>
</svg>

<svg xmlns="http://www.w3.org/2000/svg" viewBox="0 0 16 16" class="sageicon"><path fill-rule="evenodd" d="m8.243 6.77 5.442-3.025a.2.2 0 0 0 0-.35L8.324.418a.667.667 0 0 0-.648 0L2.315 3.396a.2.2 0 0 0 0 .35l5.442 3.023a.5.5 0 0 0 .486 0Zm-.91 1.406a.2.2 0 0 0-.103-.174L1.63 4.89a.2.2 0 0 0-.297.175v6.602a.667.667 0 0 0 .343.582l5.36 2.978a.2.2 0 0 0 .297-.175V8.176Zm1.334 0a.2.2 0 0 1 .103-.174l5.6-3.111a.2.2 0 0 1 .297.175v6.6a.667.667 0 0 1-.343.583l-5.36 2.978a.2.2 0 0 1-.297-.175V8.176Z"/></svg>
